X: 43022
T: Willy Taylor's High Tea
R: barndance
M: 4/4
K: Gmajor
|:^c>d|B2- B>c B>A G2|B2 d2 e4|d2 g>d (3BcB d>G|(3cBA (3GFE D2 (3FGA|
B2 B>c B>AG>D|B>d^c>d e4|(3def g>d (3BcB d>G|E2 F2 G2:|
|:g>f|e2- e>d B>A (3FGA|B2 d2 e2 f2|g2 g>d B2 d>G|
[1 c>BA>G D2 g>f|(3efe d>c B>AG>A|(3BcB (3Bcd e4|d2 g>d B2 d>G|(3ABA F2 G2:|
[2 c>BA>G (3ABA (3FGA|B2- B>c B>A (3FGA|B2 d2 e2- e>f|g2 d>g B2 d>G|A2 (3FGA G2||

